X:1532
T:Northern Lasses
R:reel
N:"collected from J. O'Neill"
B:"O'Neill's Dance Music of Ireland, 1532"
T: na cailini.de on .tuai.g.
Z:transcribed by John B. Walsh, walsh@math.ubc.ca 8/23/96
M:C|
L:1/8
K:G
((3def)|gG ((3GGG) (EG)DG|(EG)DG (EG)AB|cBAG FGAB|cBAB cdef|
gG ((3GGG) (EG)DG|(Aa)af gfed|cBAG FGAc|BGAF G2||
(Bd)|g2 dg egdg|agbg agef|g2 dg egdg|agba g2 (ga)|
((3bag) ((3agf) gfed|Bdef gedc|((3Bcd) ef gfge|1 Bgba gfef:|2 dB ((3cBA) G2||


